source/images/icons/icon-editorial/lampadaire.svg

<?xml version="1.0" encoding="UTF-8"?>
<svg width="80px" height="80px" viewBox="0 0 80 80" version="1.1" xmlns="http://www.w3.org/2000/svg" xmlns:xlink="http://www.w3.org/1999/xlink">
    <!-- Generator: Sketch 55.2 (78181) - https://sketchapp.com -->
    <title>Illustrative Icons/Lampadaire</title>
    <desc>Created with Sketch.</desc>
    <g id="Illustrative-Icons/Lampadaire" stroke="none" stroke-width="1" fill="none" fill-rule="evenodd">
        <path d="M26.3333333,73.6604725 L19.6666667,73.6604725 C18.7461921,73.6604725 18,72.9142804 18,71.9938058 L18,48.6604724 C18,47.7399979 18.7461921,46.9938058 19.6666667,46.9938058 C20.5871413,46.9938058 21.3333333,47.7399979 21.3333333,48.6604724 L21.3333333,70.3271391 L24.6666667,70.3271391 L24.6666667,47.2638058 L21.4183333,37.5204724 C21.3619048,37.3506197 21.3332039,37.1727865 21.3333333,36.9938058 L21.3333333,20.7938057 C21.3409347,17.7997495 23.3379114,15.1756963 26.2216667,14.3704724 L26.2466667,14.3704724 L54.2466667,7.05380572 C54.7450413,6.92402319 55.2754218,7.03192463 55.6834745,7.34611212 C56.0915271,7.66029961 56.3314148,8.14548011 56.3333334,8.66047239 L56.3333334,11.1454724 C56.3263658,13.3757807 54.8492038,15.3342424 52.7066667,15.9538057 L43.0683334,18.7071391 C42.1881454,18.9461495 41.2793227,18.4332768 41.0289407,17.5562558 C40.7785588,16.6792349 41.2796264,15.7638506 42.1533334,15.5021391 L51.7916667,12.7488057 C52.5072679,12.5441238 53.0004137,11.8897705 53,11.1454724 L53,10.8121391 L27.0966667,17.5788057 C25.6615916,17.9863373 24.6701612,19.2953247 24.6666667,20.7871391 L24.6666667,36.7154724 L27.915,46.4588058 C27.9714285,46.6286585 28.0001294,46.8064917 28,46.9854724 L28,71.9938058 C28,72.4358333 27.8244053,72.8597565 27.5118446,73.1723171 C27.199284,73.4848777 26.7753608,73.6604725 26.3333333,73.6604725 Z M38,20.3271391 C38.9204746,20.3271391 39.6666667,19.580947 39.6666667,18.6604724 C39.6666667,17.7399978 38.9204746,16.9938057 38,16.9938057 C37.0795254,16.9938057 36.3333334,17.7399978 36.3333334,18.6604724 C36.3333334,19.580947 37.0795254,20.3271391 38,20.3271391 Z M42.9983334,28.6604729 C42.4397442,28.6603396 41.918364,28.3803878 41.6096756,27.9148416 C41.3009873,27.4492953 41.2460422,26.8600658 41.4633334,26.3454724 L43.575,21.3454724 C43.9330647,20.4972551 44.9109494,20.0999079 45.7591667,20.4579725 C46.607384,20.8160371 47.0047313,21.7939218 46.6466667,22.6421391 L44.535,27.6421391 C44.2742091,28.25975 43.6687474,28.6609834 42.9983334,28.6604729 Z M52.445,27.6054725 C51.7597317,27.6057363 51.1441416,27.1865267 50.8933334,26.5488057 L48.8366667,21.3271391 C48.4993128,20.4706375 48.9201651,19.5028263 49.7766667,19.1654724 C50.6331683,18.8281185 51.6009794,19.2489708 51.9383334,20.1054724 L53.995,25.3271391 C54.1974303,25.8402314 54.1328963,26.4202436 53.8226364,26.8762924 C53.5123764,27.3323412 52.9965812,27.6053506 52.445,27.6054725 L52.445,27.6054725 Z M59.7766667,23.7154724 C59.4080413,23.7151714 59.0499161,23.5926703 58.7583334,23.3671391 L53.87,19.5888057 C53.3987072,19.2246926 53.1574667,18.6368064 53.2371515,18.0465982 C53.3168364,17.45639 53.7053405,16.9535265 54.2563182,16.7274315 C54.8072959,16.5013365 55.4370405,16.5863592 55.9083334,16.9504724 L60.7966667,20.7288057 C61.3605605,21.1649616 61.5846179,21.9114684 61.3541047,22.5860584 C61.1235915,23.2606485 60.4895538,23.7139368 59.7766667,23.7138057 L59.7766667,23.7154724 Z" id="Shape-color" fill="#ADB5BD"></path>
    </g>
</svg>

<svg width="80" height="80">
    <title>
        Illustrative Icons/Lampadaire
    </title>
    <path d="M26.333 73.66h-6.666c-.92 0-1.667-.746-1.667-1.666V48.66a1.667 1.667 0 0 1 3.333 0v21.667h3.334V47.264l-3.249-9.744a1.667 1.667 0 0 1-.085-.526v-16.2a6.687 6.687 0 0 1 4.889-6.424h.025l28-7.316a1.667 1.667 0 0 1 2.086 1.606v2.485a5.022 5.022 0 0 1-3.626 4.809l-9.639 2.753a1.667 1.667 0 0 1-.915-3.205l9.639-2.753A1.667 1.667 0 0 0 53 11.145v-.333L27.097 17.58a3.343 3.343 0 0 0-2.43 3.208v15.928l3.248 9.744c.056.17.085.347.085.526v25.009a1.667 1.667 0 0 1-1.667 1.666zM38 20.327a1.667 1.667 0 1 0 0-3.333 1.667 1.667 0 0 0 0 3.333zm4.998 8.333a1.667 1.667 0 0 1-1.535-2.315l2.112-5a1.667 1.667 0 0 1 3.072 1.297l-2.112 5a1.667 1.667 0 0 1-1.537 1.018zm9.447-1.055c-.685 0-1.3-.418-1.552-1.056l-2.056-5.222a1.667 1.667 0 0 1 3.101-1.222l2.057 5.222a1.667 1.667 0 0 1-1.55 2.278zm7.332-3.89c-.369 0-.727-.122-1.019-.348L53.87 19.59a1.667 1.667 0 1 1 2.038-2.639l4.889 3.779a1.667 1.667 0 0 1-1.02 2.985v.001z" fill="#ADB5BD" fill-rule="evenodd"/>
</svg>
